svgs/light/gallery-thumbnails.svg

<svg xmlns="http://www.w3.org/2000/svg" viewBox="0 0 576 512"><!--! Font Awesome Pro 6.6.0 by @fontawesome - https://fontawesome.com License - https://fontawesome.com/license (Commercial License) Copyright 2024 Fonticons, Inc. --><path d="M512 32c17.7 0 32 14.3 32 32l0 224c0 17.7-14.3 32-32 32L64 320c-17.7 0-32-14.3-32-32L32 64c0-17.7 14.3-32 32-32l448 0zM64 0C28.7 0 0 28.7 0 64L0 288c0 35.3 28.7 64 64 64l448 0c35.3 0 64-28.7 64-64l0-224c0-35.3-28.7-64-64-64L64 0zm0 448l0 32-32 0 0-32 32 0zM32 416c-17.7 0-32 14.3-32 32l0 32c0 17.7 14.3 32 32 32l32 0c17.7 0 32-14.3 32-32l0-32c0-17.7-14.3-32-32-32l-32 0zm160 32l32 0 0 32-32 0 0-32zm-32 0l0 32c0 17.7 14.3 32 32 32l32 0c17.7 0 32-14.3 32-32l0-32c0-17.7-14.3-32-32-32l-32 0c-17.7 0-32 14.3-32 32zm224 0l0 32-32 0 0-32 32 0zm-32-32c-17.7 0-32 14.3-32 32l0 32c0 17.7 14.3 32 32 32l32 0c17.7 0 32-14.3 32-32l0-32c0-17.7-14.3-32-32-32l-32 0zm160 32l32 0 0 32-32 0 0-32zm-32 0l0 32c0 17.7 14.3 32 32 32l32 0c17.7 0 32-14.3 32-32l0-32c0-17.7-14.3-32-32-32l-32 0c-17.7 0-32 14.3-32 32z"/></svg>

<svg xmlns="http://www.w3.org/2000/svg" viewBox="0 0 576 512"><!--! Font Awesome Pro 6.4.0 by @fontawesome - https://fontawesome.com License - https://fontawesome.com/license (Commercial License) Copyright 2023 Fonticons, Inc. --><path d="M512 32c17.7 0 32 14.3 32 32V288c0 17.7-14.3 32-32 32H64c-17.7 0-32-14.3-32-32V64c0-17.7 14.3-32 32-32H512zM64 0C28.7 0 0 28.7 0 64V288c0 35.3 28.7 64 64 64H512c35.3 0 64-28.7 64-64V64c0-35.3-28.7-64-64-64H64zm0 448v32H32l0-32H64zM32 416c-17.7 0-32 14.3-32 32v32c0 17.7 14.3 32 32 32H64c17.7 0 32-14.3 32-32V448c0-17.7-14.3-32-32-32H32zm160 32h32v32H192V448zm-32 0v32c0 17.7 14.3 32 32 32h32c17.7 0 32-14.3 32-32V448c0-17.7-14.3-32-32-32H192c-17.7 0-32 14.3-32 32zm224 0v32H352V448h32zm-32-32c-17.7 0-32 14.3-32 32v32c0 17.7 14.3 32 32 32h32c17.7 0 32-14.3 32-32V448c0-17.7-14.3-32-32-32H352zm160 32h32v32H512V448zm-32 0v32c0 17.7 14.3 32 32 32h32c17.7 0 32-14.3 32-32V448c0-17.7-14.3-32-32-32H512c-17.7 0-32 14.3-32 32z"/></svg>
